assets/img/undraw_good_team_m7uu.svg

<svg data-name="Layer 1" xmlns="http://www.w3.org/2000/svg" width="1115.914" height="832.564"><path fill="none" stroke="#3f3d56" stroke-miterlimit="10" stroke-width="2" d="M389.957 255.282h144"/><ellipse cx="248.867" cy="443.498" rx="39.5" ry="12.4" transform="rotate(-69.082 203.353 457.179)" fill="#2f2e41"/><path d="M1111.335 509.296C1127 625.885 1105.668 742.6 997.166 788.049s-233.305-5.666-278.754-114.168 61.785-173.424 114.17-278.754c106.375-213.893 230.103-247.896 278.753 114.169z" fill="#f2f2f2"/><ellipse cx="916" cy="794.436" rx="170" ry="23.127" fill="#3f3d56"/><path fill="#2f2e41" d="M811.184 758.709l-6.394-23.132 41.445-11.457 6.395 23.132z"/><ellipse cx="844.359" cy="777.24" rx="7.5" ry="20" transform="rotate(-15.452 699.072 915.328)" fill="#2f2e41"/><ellipse cx="965.361" cy="688.069" rx="39.5" ry="12.4" transform="rotate(-82.281 925.041 695.273)" fill="#2f2e41"/><circle cx="915.585" cy="728.299" r="79" fill="#2f2e41"/><path fill="#2f2e41" d="M811.184 744.709l-6.394-23.132 41.445-11.457 6.395 23.132z"/><ellipse cx="844.359" cy="763.24" rx="7.5" ry="20" transform="rotate(-15.452 699.072 901.328)" fill="#2f2e41"/><circle cx="936.329" cy="683.043" r="27" fill="#fff"/><circle cx="944.963" cy="671.116" r="9" fill="#3f3d56"/><path d="M1006.815 782.588c29.234-1.464 51.624-28.808 50.01-61.077s-26.624-57.24-55.859-55.777-33.822 24.412-32.207 56.68 8.821 61.637 38.056 60.174z"/><path d="M883.298 694.874a18 18 0 0 1-2.904-35.883c9.908-.802 12.61 7.065 13.413 16.973s-.6 18.108-10.51 18.91z" fill="#fff"/><path fill="none" stroke="#3f3d56" stroke-miterlimit="10" stroke-width="2" d="M49.464 361.025h442.493l68.603 33.422 109.306 53.252 71.468-133.812h202.24"/><circle cx="222.811" cy="375.025" r="13.685"/><circle cx="350.541" cy="361.025" r="13.685"/><circle cx="560.384" cy="394.478" r="13.685"/><circle cx="855.379" cy="313.887" r="13.685"/><circle cx="712.443" cy="367.108" r="13.685"/><circle cx="427.576" cy="581.441" r="14.756" fill="none" stroke="#3f3d56" stroke-miterlimit="10" stroke-width="2"/><ellipse cx="170" cy="809.436" rx="170" ry="23.127" fill="#3f3d56"/><circle cx="160.805" cy="696.436" r="79" fill="#2f2e41"/><path fill="#2f2e41" d="M124.805 758.436h24v43h-24zm48 0h24v43h-24z"/><ellipse cx="144.805" cy="801.936" rx="20" ry="7.5" fill="#2f2e41"/><ellipse cx="192.805" cy="800.936" rx="20" ry="7.5" fill="#2f2e41"/><circle cx="162.805" cy="676.436" r="27" fill="#fff"/><circle cx="162.805" cy="676.436" r="9" fill="#3f3d56"/><path d="M84.172 622.969c-6.379-28.568 14.012-57.434 45.544-64.475s62.265 10.41 68.644 38.977-14.519 39.104-46.05 46.145-61.76 7.92-68.138-20.647z"/><circle cx="133.805" cy="469.436" r="79" fill="#2f2e41"/><path fill="#2f2e41" d="M97.805 531.436h24v43h-24zm48 0h24v43h-24z"/><ellipse cx="117.805" cy="574.936" rx="20" ry="7.5" fill="#2f2e41"/><ellipse cx="165.805" cy="573.936" rx="20" ry="7.5" fill="#2f2e41"/><circle cx="135.805" cy="449.436" r="27" fill="#fff"/><circle cx="135.805" cy="449.436" r="9" fill="#3f3d56"/><path d="M57.172 395.969c-6.379-28.568 14.012-57.434 45.544-64.475s62.265 10.41 68.644 38.977-14.519 39.104-46.05 46.145-61.76 7.92-68.138-20.647z"/><ellipse cx="86.867" cy="466.498" rx="12.4" ry="39.5" transform="rotate(-64.626 39.19 482.875)" fill="#2f2e41"/><path d="M95 497.936c0 7.732 19.909 23 42 23s42.805-21.768 42.805-29.5-20.714 1.5-42.805 1.5-42-2.732-42 5z" fill="#fff"/><path d="M835.474 564.71h126.129v64.161H835.474z"/><path fill="none" stroke="#3f3d56" stroke-miterlimit="10" stroke-width="2" d="M825.603 575.129h126.129v64.161H825.603z"/><path fill="#ff6584" d="M226.603 199h36v36h-36z"/><path fill="none" stroke="#3f3d56" stroke-miterlimit="10" stroke-width="2" d="M217.603 187h36v36h-36z"/><circle cx="906.052" cy="189.47" r="79" fill="#2f2e41"/><path fill="#2f2e41" d="M960.209 286.379l-23.616 4.275-7.66-42.312 23.616-4.276z"/><path fill="#2f2e41" d="M912.947 294.927l-23.616 4.276-7.66-42.313 23.617-4.275z"/><ellipse cx="939.065" cy="336.103" rx="20" ry="7.5" transform="rotate(-40.261 872.05 376.593)" fill="#2f2e41"/><ellipse cx="985.313" cy="327.731" rx="20" ry="7.5" transform="rotate(-40.261 918.298 368.22)" fill="#2f2e41"/><circle cx="900.521" cy="170.146" r="27" fill="#fff"/><circle cx="889.424" cy="160.468" r="9" fill="#3f3d56"/><path d="M968.372 103.527c1.188-29.247-24.019-54.02-56.3-55.331s-59.416 21.335-60.604 50.582 21.253 35.892 53.535 37.203 62.181-3.207 63.37-32.454z"/><ellipse cx="875.15" cy="208.796" rx="12.4" ry="39.5" transform="rotate(-77.09 832.967 218.322)" fill="#2f2e41"/><ellipse cx="1030.224" cy="234.584" rx="12.4" ry="39.5" transform="rotate(-77.09 988.041 244.11)" fill="#2f2e41"/><path d="M927.75 220.603a18 18 0 1 1-35.425 6.413c-1.77-9.782 5.793-13.244 15.575-15.015s18.079-1.18 19.85 8.602z" fill="#fff"/><path fill="none" stroke="#3f3d56" stroke-miterlimit="10" stroke-width="2" d="M712.603 99l91 70"/><circle cx="669.603" cy="68" r="68" fill="#ff6584"/><ellipse cx="935.71" cy="706.84" rx="39.5" ry="12.4" transform="rotate(-82.281 895.39 714.044)" fill="#2f2e41"/><circle cx="68.811" cy="786.025" r="13.685"/><path fill="#ff6584" d="M256.603 770h36v36h-36z"/><circle cx="256.811" cy="794.025" r="13.685"/><circle cx="461.957" cy="255.025" r="13.685"/><circle cx="727.721" cy="679.252" r="6.535" fill="#ff6584"/><path fill="#3f3d56" stroke="#3f3d56" stroke-miterlimit="10" stroke-width="2" d="M759.739 787.725v-74.412"/><circle cx="759.739" cy="713.313" r="10.523" fill="#3f3d56"/><path d="M759.74 759.175s-1.504-32.332-32.32-28.574" fill="#3f3d56"/></svg>

<svg data-name="Layer 1" xmlns="http://www.w3.org/2000/svg" width="1115.914" height="832.564"><path fill="none" stroke="#3f3d56" stroke-miterlimit="10" stroke-width="2" d="M389.957 255.282L533.957 255.282"/><ellipse cx="248.867" cy="443.498" rx="39.5" ry="12.4" transform="rotate(-69.082 203.353 457.179)" fill="#2f2e41"/><path d="M1111.335 509.296C1127 625.885 1105.668 742.6 997.166 788.049s-233.305-5.666-278.754-114.168 61.785-173.424 114.17-278.754c106.375-213.893 230.103-247.896 278.753 114.169z" fill="#f2f2f2"/><ellipse cx="916" cy="794.436" rx="170" ry="23.127" fill="#3f3d56"/><path transform="rotate(-105.452 836.9 774.272)" fill="#2f2e41" d="M858.752 753.632H882.752V796.632H858.752z"/><ellipse cx="844.359" cy="777.24" rx="7.5" ry="20" transform="rotate(-15.452 699.072 915.328)" fill="#2f2e41"/><ellipse cx="965.361" cy="688.069" rx="39.5" ry="12.4" transform="rotate(-82.281 925.041 695.273)" fill="#2f2e41"/><circle cx="915.585" cy="728.299" r="79" fill="#2f2e41"/><path transform="rotate(-105.452 836.9 760.272)" fill="#2f2e41" d="M858.752 739.632H882.752V782.632H858.752z"/><ellipse cx="844.359" cy="763.24" rx="7.5" ry="20" transform="rotate(-15.452 699.072 901.328)" fill="#2f2e41"/><circle cx="936.329" cy="683.043" r="27" fill="#fff"/><circle cx="944.963" cy="671.116" r="9" fill="#3f3d56"/><path d="M1006.815 782.588c29.234-1.464 51.624-28.808 50.01-61.077s-26.624-57.24-55.859-55.777-33.822 24.412-32.207 56.68 8.821 61.637 38.056 60.174z"/><path d="M883.298 694.874a18 18 0 0 1-2.904-35.883c9.908-.802 12.61 7.065 13.413 16.973s-.6 18.108-10.51 18.91z" fill="#fff"/><path fill="none" stroke="#3f3d56" stroke-miterlimit="10" stroke-width="2" d="M49.464 361.025L491.957 361.025 560.56 394.447 669.866 447.699 741.334 313.887 943.574 313.887"/><circle cx="222.811" cy="375.025" r="13.685"/><circle cx="350.541" cy="361.025" r="13.685"/><circle cx="560.384" cy="394.478" r="13.685"/><circle cx="855.379" cy="313.887" r="13.685"/><circle cx="712.443" cy="367.108" r="13.685"/><circle cx="427.576" cy="581.441" r="14.756" fill="none" stroke="#3f3d56" stroke-miterlimit="10" stroke-width="2"/><ellipse cx="170" cy="809.436" rx="170" ry="23.127" fill="#3f3d56"/><circle cx="160.805" cy="696.436" r="79" fill="#2f2e41"/><path fill="#2f2e41" d="M124.805 758.436H148.805V801.436H124.805z"/><path fill="#2f2e41" d="M172.805 758.436H196.805V801.436H172.805z"/><ellipse cx="144.805" cy="801.936" rx="20" ry="7.5" fill="#2f2e41"/><ellipse cx="192.805" cy="800.936" rx="20" ry="7.5" fill="#2f2e41"/><circle cx="162.805" cy="676.436" r="27" fill="#fff"/><circle cx="162.805" cy="676.436" r="9" fill="#3f3d56"/><path d="M84.172 622.969c-6.379-28.568 14.012-57.434 45.544-64.475s62.265 10.41 68.644 38.977-14.519 39.104-46.05 46.145-61.76 7.92-68.138-20.647z"/><circle cx="133.805" cy="469.436" r="79" fill="#2f2e41"/><path fill="#2f2e41" d="M97.805 531.436H121.805V574.436H97.805z"/><path fill="#2f2e41" d="M145.805 531.436H169.805V574.436H145.805z"/><ellipse cx="117.805" cy="574.936" rx="20" ry="7.5" fill="#2f2e41"/><ellipse cx="165.805" cy="573.936" rx="20" ry="7.5" fill="#2f2e41"/><circle cx="135.805" cy="449.436" r="27" fill="#fff"/><circle cx="135.805" cy="449.436" r="9" fill="#3f3d56"/><path d="M57.172 395.969c-6.379-28.568 14.012-57.434 45.544-64.475s62.265 10.41 68.644 38.977-14.519 39.104-46.05 46.145-61.76 7.92-68.138-20.647z"/><ellipse cx="86.867" cy="466.498" rx="12.4" ry="39.5" transform="rotate(-64.626 39.19 482.875)" fill="#2f2e41"/><path d="M95 497.936c0 7.732 19.909 23 42 23s42.805-21.768 42.805-29.5-20.714 1.5-42.805 1.5-42-2.732-42 5z" fill="#fff"/><path d="M835.474 564.71H961.6030000000001V628.8710000000001H835.474z"/><path fill="none" stroke="#3f3d56" stroke-miterlimit="10" stroke-width="2" d="M825.603 575.129H951.732V639.29H825.603z"/><path fill="#ff6584" d="M226.603 199H262.603V235H226.603z"/><path fill="none" stroke="#3f3d56" stroke-miterlimit="10" stroke-width="2" d="M217.603 187H253.603V223H217.603z"/><circle cx="906.052" cy="189.47" r="79" fill="#2f2e41"/><path transform="scale(-1) rotate(-10.261 -3144.573 10771.289)" fill="#2f2e41" d="M974.585 279.578H998.585V322.578H974.585z"/><path transform="rotate(169.739 919.845 290.881)" fill="#2f2e41" d="M927.353 288.128H951.353V331.128H927.353z"/><ellipse cx="939.065" cy="336.103" rx="20" ry="7.5" transform="rotate(-40.261 872.05 376.593)" fill="#2f2e41"/><ellipse cx="985.313" cy="327.731" rx="20" ry="7.5" transform="rotate(-40.261 918.298 368.22)" fill="#2f2e41"/><circle cx="900.521" cy="170.146" r="27" fill="#fff"/><circle cx="889.424" cy="160.468" r="9" fill="#3f3d56"/><path d="M968.372 103.527c1.188-29.247-24.019-54.02-56.3-55.331s-59.416 21.335-60.604 50.582 21.253 35.892 53.535 37.203 62.181-3.207 63.37-32.454z"/><ellipse cx="875.15" cy="208.796" rx="12.4" ry="39.5" transform="rotate(-77.09 832.967 218.322)" fill="#2f2e41"/><ellipse cx="1030.224" cy="234.584" rx="12.4" ry="39.5" transform="rotate(-77.09 988.041 244.11)" fill="#2f2e41"/><path d="M927.75 220.603a18 18 0 1 1-35.425 6.413c-1.77-9.782 5.793-13.244 15.575-15.015s18.079-1.18 19.85 8.602z" fill="#fff"/><path fill="none" stroke="#3f3d56" stroke-miterlimit="10" stroke-width="2" d="M712.603 99L803.603 169"/><circle cx="669.603" cy="68" r="68" fill="#ff6584"/><ellipse cx="935.71" cy="706.84" rx="39.5" ry="12.4" transform="rotate(-82.281 895.39 714.044)" fill="#2f2e41"/><circle cx="68.811" cy="786.025" r="13.685"/><path fill="#ff6584" d="M256.603 770H292.603V806H256.603z"/><circle cx="256.811" cy="794.025" r="13.685"/><circle cx="461.957" cy="255.025" r="13.685"/><circle cx="727.721" cy="679.252" r="6.535" fill="#ff6584"/><path fill="#3f3d56" stroke="#3f3d56" stroke-miterlimit="10" stroke-width="2" d="M759.739 787.725L759.739 713.313"/><circle cx="759.739" cy="713.313" r="10.523" fill="#3f3d56"/><path d="M759.74 759.175s-1.504-32.332-32.32-28.574" fill="#3f3d56"/></svg>
